assets/images/404.svg

<?xml version="1.0" encoding="UTF-8"?>
<svg width="500px" height="213px" viewBox="0 0 500 213" version="1.1" xmlns="http://www.w3.org/2000/svg" xmlns:xlink="http://www.w3.org/1999/xlink">
    <!-- Generator: Sketch 50.2 (55047) - http://www.bohemiancoding.com/sketch -->
    <title>404</title>
    <desc>Created with Sketch.</desc>
    <defs></defs>
    <g id="404" stroke="none" stroke-width="1" fill="none" fill-rule="evenodd">
        <g>
            <path d="M94.6073224,62.4271527 L45.6928033,124.835701 L94.6073224,124.835701 L94.6073224,62.4271527 Z M162.357165,154.07203 L128.622722,154.07203 L128.622722,208.890383 L94.6073224,208.890383 L94.6073224,154.07203 L9.42787555,154.07203 L9.42787555,129.052546 L98.5428975,10.7011942 L128.622722,10.7011942 L128.622722,124.835701 L162.357165,124.835701 L162.357165,154.07203 Z" id="Fill-1" fill="#0D47A1"></path>
            <path d="M290.826116,110.217473 C290.826116,107.221873 290.778033,104.362351 290.685638,101.643306 C290.593558,98.9286612 290.45308,96.2583281 290.268605,93.6313639 L221.951823,156.320867 C227.714865,173.377436 238.217379,181.903206 253.459365,181.903206 C265.354085,181.903206 274.55616,176.188561 281.065902,164.754557 C287.571559,153.325581 290.826116,135.144563 290.826116,110.217473 M216.048617,110.217473 C216.048617,113.028598 216.0923,115.699246 216.184381,118.229415 C216.276776,120.759585 216.417253,123.337838 216.606128,125.960402 L284.641326,63.2705845 C279.063074,47.1543055 268.560559,39.0942803 253.134098,39.0942803 C241.234978,39.0942803 232.080987,44.8570082 225.668039,56.3830924 C219.255091,67.9088624 216.048617,85.8566939 216.048617,110.217473 M179.503048,110.217473 C179.503048,93.1659334 181.285889,78.2181018 184.861628,65.3790069 C188.437052,52.5439975 193.466593,41.9054054 199.958422,33.4717159 C206.45088,25.0380264 214.212351,18.7130735 223.243149,14.4962288 C232.274261,10.279384 242.337429,8.17096166 253.437052,8.17096166 C277.139126,8.17096166 295.389912,16.4641735 308.180924,33.0502828 C320.971936,49.6360779 327.371684,75.3585795 327.371684,110.217473 C327.371684,127.462288 325.584129,142.5022 322.008705,155.336895 C318.433281,168.176618 313.40374,178.859208 306.911596,187.384978 C300.419453,195.914833 292.613671,202.284098 283.490792,206.500943 C274.363199,210.717788 264.25132,212.82621 253.156097,212.82621 C229.261062,212.82621 211.014676,204.067568 198.40814,186.541483 C185.801917,169.019799 179.503048,143.578253 179.503048,110.217473" id="Fill-2" fill="#0D47A1"></path>
            <path d="M431.945852,62.4271527 L383.031332,124.835701 L431.945852,124.835701 L431.945852,62.4271527 Z M499.695695,154.07203 L465.961251,154.07203 L465.961251,208.890383 L431.945852,208.890383 L431.945852,154.07203 L346.766719,154.07203 L346.766719,129.052546 L435.881427,10.7011942 L465.961251,10.7011942 L465.961251,124.835701 L499.695695,124.835701 L499.695695,154.07203 Z" id="Fill-4" fill="#0D47A1"></path>
            <path d="M32.3909177,118.864739 L87.065022,118.864739 L87.065022,49.1082967 L32.3909177,118.864739 Z M87.065022,199.148523 L87.065022,144.329855 L1.88557511,144.329855 L1.88557511,121.826398 L90.055594,4.72991829 L117.309208,4.72991829 L117.309208,118.864739 L151.043652,118.864739 L151.043652,144.329855 L117.309208,144.329855 L117.309208,199.148523 L87.065022,199.148523 Z" id="Fill-6" fill="#FFFFFF"></path>
            <path d="M36.2646135,116.979133 L85.1791326,54.5705845 L85.1791326,116.979133 L36.2646135,116.979133 Z M119.194846,2.84431175 L89.115022,2.84431175 L0,121.195977 L0,146.215462 L85.1791326,146.215462 L85.1791326,201.034129 L119.194846,201.034129 L119.194846,146.215462 L152.92929,146.215462 L152.92929,116.979133 L119.194846,116.979133 L119.194846,2.84431175 Z M28.5172847,120.750346 L36.2646135,120.750346 L85.1791326,120.750346 L88.9503457,120.750346 L88.9503457,116.979133 L88.9503457,54.5705845 L88.9503457,43.6456945 L82.2111879,52.2443746 L33.2963545,114.652608 L28.5172847,120.750346 L28.5172847,120.750346 Z M115.423633,6.61552483 L115.423633,116.979133 L115.423633,120.750346 L119.194846,120.750346 L149.158077,120.750346 L149.158077,142.444249 L119.194846,142.444249 L115.423633,142.444249 L115.423633,146.215462 L115.423633,197.262916 L88.9503457,197.262916 L88.9503457,146.215462 L88.9503457,142.444249 L85.1791326,142.444249 L3.77121307,142.444249 L3.77121307,122.457134 L90.9962288,6.61552483 L115.423633,6.61552483 Z" id="Fill-8" fill="#0D47A1"></path>
            <path d="M243.705908,29.352137 C231.128598,29.352137 221.332872,35.4948146 214.591829,47.6095223 C208.051288,59.365022 204.734821,77.7861408 204.734821,102.360937 C204.734821,105.220459 204.781018,107.938875 204.871842,110.441389 C204.965179,112.986015 205.108171,115.609208 205.297046,118.239001 L205.578316,122.141892 L277.398869,55.9640163 L276.995035,54.7971402 C271.150911,37.913105 259.950723,29.352137 243.705908,29.352137 L243.705908,29.352137 Z M210.3445,147.905248 L210.737335,149.068039 C216.760591,166.89362 227.961722,175.931961 244.031175,175.931961 C256.598743,175.931961 266.438152,169.84208 273.276618,157.831081 C279.916782,146.164833 283.283532,127.502043 283.283532,102.360937 C283.283532,99.3951917 283.236078,96.4888435 283.141483,93.722973 C283.05066,91.0413262 282.909554,88.3225959 282.720993,85.6428347 L282.447266,81.7412005 L210.3445,147.905248 Z M243.727907,203.084067 C232.121056,203.084067 221.761219,200.936047 212.937209,196.699717 C204.143055,192.477844 196.598429,186.046354 190.510434,177.583752 C178.201194,160.47533 171.960151,135.166719 171.960151,102.360937 C171.960151,85.5472973 173.740163,70.6315211 177.249906,58.0284412 C180.746135,45.4781584 185.716908,34.9596166 192.02489,26.7653991 C198.300503,18.612665 205.90044,12.4162476 214.612885,8.34805154 C223.349843,4.2685418 233.240478,2.20003143 244.009177,2.20003143 C255.534004,2.20003143 265.857385,4.23585795 274.692709,8.25062854 C283.491578,12.2496857 291.084287,18.3373664 297.259648,26.3452231 C309.733564,42.519956 316.058202,68.0953803 316.058202,102.360937 C316.058202,119.354023 314.276933,134.364393 310.764048,146.974701 C307.267819,159.528755 302.294846,170.096952 295.983092,178.386078 C289.712508,186.62555 282.071087,192.865336 273.27159,196.932904 C264.436581,201.014613 254.496606,203.084067 243.727907,203.084067 L243.727907,203.084067 Z" id="Fill-10" fill="#FFFFFF"></path>
            <path d="M244.031207,174.046354 C228.789221,174.046354 218.286392,165.520585 212.52335,148.464645 L280.840446,85.7748272 C281.024607,88.4017913 281.165085,91.0721245 281.257165,93.7867693 C281.349874,96.505814 281.397643,99.365022 281.397643,102.360937 C281.397643,127.288341 278.1434,145.46873 271.637744,156.898334 C265.128316,168.33171 255.926241,174.046354 244.031207,174.046354 L244.031207,174.046354 Z M207.177656,118.103551 C206.989409,115.481301 206.848931,112.902734 206.756223,110.372879 C206.664142,107.842709 206.620459,105.172062 206.620459,102.360937 C206.620459,78.0001571 209.826933,60.0523256 216.239881,48.5265556 C222.653143,37.0007857 231.80682,31.2377436 243.70594,31.2377436 C259.132715,31.2377436 269.634915,39.2977687 275.213168,55.4140478 L207.177656,118.103551 Z M244.009208,0.31442489 C232.908957,0.31442489 222.845789,2.42284727 213.814991,6.63969202 C204.783878,10.8562225 197.022407,17.1814896 190.530264,25.6151791 C184.038749,34.0488686 179.009208,44.6874607 175.433784,57.5224701 C171.857731,70.3615651 170.074576,85.3093966 170.074576,102.360937 C170.074576,135.72203 176.373444,161.163262 188.979667,178.684947 C201.586518,196.210717 219.83259,204.969673 243.727938,204.969673 C254.823162,204.969673 264.935041,202.861251 274.062948,198.644406 C283.185827,194.427876 290.991609,188.058611 297.483124,179.528127 C303.975267,171.002357 309.004808,160.319767 312.580233,147.480673 C316.155657,134.645663 317.943526,119.606065 317.943526,102.360937 C317.943526,67.5020427 311.543463,41.7798554 298.752451,25.1937461 C285.962068,8.60732244 267.711282,0.31442489 244.009208,0.31442489 L244.009208,0.31442489 Z M244.031207,177.817568 C257.326304,177.817568 267.716625,171.407134 274.915242,158.763828 C278.365588,152.701603 280.974953,144.826053 282.669485,135.355908 C284.32819,126.088781 285.168856,114.987901 285.168856,102.360937 C285.168856,99.3741358 285.121087,96.4464173 285.026493,93.6591766 C284.934412,90.9549026 284.792049,88.2132307 284.602546,85.5108422 L284.054463,77.7072596 L278.290792,82.9963859 L209.973696,145.685889 L208.164771,147.345852 L208.951069,149.671747 C212.050063,158.845223 216.557291,165.879478 222.345475,170.579353 C228.261251,175.381992 235.557605,177.817568 244.031207,177.817568 L244.031207,177.817568 Z M203.978724,126.179918 L209.733595,120.876964 L277.769107,58.1871464 L279.584632,56.5139849 L278.776964,54.1802326 C275.754965,45.4501886 271.270679,38.758171 265.448554,34.2905405 C259.547549,29.7625707 252.232338,27.4665305 243.70594,27.4665305 C230.392615,27.4665305 220.043149,33.935418 212.944469,46.6928033 C209.550063,52.7936832 206.981867,60.6242929 205.313105,69.967159 C203.67797,79.1164362 202.849246,90.015242 202.849246,102.360937 C202.849246,105.243715 202.895757,107.985072 202.987209,110.510528 C203.081175,113.075581 203.225424,115.721402 203.416499,118.37445 L203.978724,126.179918 L203.978724,126.179918 Z M244.009208,4.08563796 C255.263136,4.08563796 265.324104,6.06458202 273.912414,9.96747329 C282.428441,13.8373664 289.78105,19.7352294 295.766279,27.4967002 C301.812162,35.3364236 306.428127,45.5438404 309.484695,57.8351666 C312.595003,70.3401948 314.172313,85.3210245 314.172313,102.360937 C314.172313,119.183061 312.414613,134.023099 308.946983,146.469045 C305.516122,158.791483 300.649057,169.145663 294.482181,177.244343 C288.400157,185.236172 280.99758,191.284569 272.480924,195.221087 C263.895757,199.187461 254.221653,201.19846 243.727938,201.19846 C232.405185,201.19846 222.320333,199.112979 213.752766,194.999843 C205.247423,190.916248 197.942583,184.686204 192.041263,176.482244 C186.050063,168.154777 181.480924,157.749686 178.460497,145.556097 C175.398586,133.192489 173.845789,118.659805 173.845789,102.360937 C173.845789,85.7179447 175.602546,70.9728158 179.066719,58.5344123 C182.497266,46.2185732 187.359931,35.9168762 193.51895,27.9156191 C199.608831,20.0045569 206.97401,13.9957574 215.410842,10.0567253 C223.896072,6.09443746 233.518008,4.08563796 244.009208,4.08563796 L244.009208,4.08563796 Z" id="Fill-12" fill="#0D47A1"></path>
            <path d="M369.729101,118.864739 L424.403206,118.864739 L424.403206,49.1082967 L369.729101,118.864739 Z M424.403206,199.148523 L424.403206,144.329855 L339.224387,144.329855 L339.224387,121.826398 L427.394092,4.72991829 L454.647706,4.72991829 L454.647706,118.864739 L488.382464,118.864739 L488.382464,144.329855 L454.647706,144.329855 L454.647706,199.148523 L424.403206,199.148523 Z" id="Fill-14" fill="#FFFFFF"></path>
            <path d="M373.602828,116.979133 L422.517348,54.5705845 L422.517348,116.979133 L373.602828,116.979133 Z M456.533375,2.84431175 L426.453237,2.84431175 L337.338529,121.195977 L337.338529,146.215462 L422.517348,146.215462 L422.517348,201.034129 L456.533375,201.034129 L456.533375,146.215462 L490.268133,146.215462 L490.268133,116.979133 L456.533375,116.979133 L456.533375,2.84431175 Z M365.8555,120.750346 L373.602828,120.750346 L422.517348,120.750346 L426.288561,120.750346 L426.288561,116.979133 L426.288561,54.5705845 L426.288561,43.6456945 L419.549717,52.2443746 L370.635198,114.652608 L365.8555,120.750346 L365.8555,120.750346 Z M452.762162,6.61552483 L452.762162,116.979133 L452.762162,120.750346 L456.533375,120.750346 L486.49692,120.750346 L486.49692,142.444249 L456.533375,142.444249 L452.762162,142.444249 L452.762162,146.215462 L452.762162,197.262916 L426.288561,197.262916 L426.288561,146.215462 L426.288561,142.444249 L422.517348,142.444249 L341.109742,142.444249 L341.109742,122.457134 L428.334444,6.61552483 L452.762162,6.61552483 Z" id="Fill-16" fill="#0D47A1"></path>
        </g>
    </g>
</svg>

<svg width="500" height="213" viewBox="0 0 500 213" xmlns="http://www.w3.org/2000/svg">
    <g fill="none" fill-rule="evenodd">
        <path d="M94.607 62.427l-48.914 62.409h48.914V62.427zm67.75 91.645h-33.734v54.818H94.607v-54.818H9.427v-25.02l89.116-118.35h30.08v114.134h33.734v29.236zM290.826 110.217a252.8 252.8 0 0 0-.14-8.574 221.584 221.584 0 0 0-.417-8.012l-68.317 62.69c5.763 17.056 16.265 25.582 31.507 25.582 11.895 0 21.097-5.714 27.607-17.148 6.506-11.43 9.76-29.61 9.76-54.538m-74.777 0c0 2.812.043 5.482.135 8.012.093 2.53.233 5.109.422 7.731l68.035-62.69c-5.578-16.116-16.08-24.176-31.507-24.176-11.899 0-21.053 5.763-27.466 17.29-6.413 11.525-9.62 29.473-9.62 53.833m-36.545 0c0-17.051 1.783-31.999 5.359-44.838 3.575-12.835 8.605-23.474 15.096-31.907 6.493-8.434 14.254-14.759 23.285-18.976 9.031-4.217 19.094-6.325 30.194-6.325 23.702 0 41.953 8.293 54.744 24.88 12.79 16.585 19.19 42.308 19.19 77.166 0 17.245-1.787 32.285-5.362 45.12-3.576 12.84-8.605 23.522-15.097 32.048-6.493 8.53-14.298 14.9-23.421 19.116-9.128 4.217-19.24 6.325-30.335 6.325-23.895 0-42.141-8.758-54.748-26.285-12.606-17.521-18.905-42.963-18.905-76.324M431.946 62.427l-48.915 62.409h48.915V62.427zm67.75 91.645H465.96v54.818h-34.015v-54.818h-85.18v-25.02l89.115-118.35h30.08v114.134h33.735v29.236z" fill="#0D47A1"/>
        <path d="M32.39 118.865h54.675V49.108l-54.674 69.757zm54.675 80.284v-54.82H1.885v-22.503L90.056 4.73h27.254v114.135h33.735v25.465h-33.735v54.819H87.065z" fill="#FFF"/>
        <path d="M36.265 116.98l48.914-62.41v62.41H36.265zm82.93-114.136h-30.08L0 121.196v25.02h85.18v54.818h34.015v-54.819h33.734V116.98h-33.734V2.844zM28.517 120.75H88.95V43.646l-6.739 8.598-48.915 62.409-4.779 6.097zM115.424 6.616V120.75h33.734v21.694h-33.734v54.819H88.95V142.445H3.771v-19.988L90.996 6.616h24.428z" fill="#0D47A1"/>
        <path d="M243.706 29.352c-12.577 0-22.373 6.143-29.114 18.258-6.54 11.755-9.857 30.176-9.857 54.75 0 2.86.046 5.579.137 8.081.093 2.545.236 5.168.425 7.798l.281 3.903 71.82-66.178-.403-1.167c-5.844-16.884-17.044-25.445-33.29-25.445zm-33.361 118.553l.392 1.163c6.024 17.826 17.225 26.864 33.294 26.864 12.568 0 22.407-6.09 29.246-18.1 6.64-11.667 10.007-30.33 10.007-55.471 0-2.966-.048-5.872-.143-8.638-.09-2.682-.231-5.4-.42-8.08l-.274-3.902-72.102 66.164zm33.383 55.18c-11.607 0-21.967-2.149-30.79-6.385-8.795-4.222-16.34-10.654-22.428-19.116-12.309-17.109-18.55-42.417-18.55-75.223 0-16.814 1.78-31.73 5.29-44.333 3.496-12.55 8.467-23.068 14.775-31.263 6.276-8.152 13.875-14.349 22.588-18.417C223.35 4.268 233.24 2.2 244.009 2.2c11.525 0 21.848 2.036 30.684 6.05 8.799 4 16.391 10.087 22.567 18.095 12.474 16.175 18.798 41.75 18.798 76.016 0 16.993-1.781 32.003-5.294 44.614-3.496 12.554-8.47 23.122-14.78 31.411-6.271 8.24-13.913 14.48-22.712 18.547-8.835 4.082-18.775 6.151-29.544 6.151z" fill="#FFF"/>
        <path d="M244.031 174.046c-15.242 0-25.745-8.525-31.508-25.581l68.317-62.69c.185 2.627.325 5.297.417 8.012.093 2.719.14 5.578.14 8.574 0 24.927-3.254 43.108-9.76 54.537-6.509 11.434-15.71 17.148-27.606 17.148zm-36.853-55.942c-.189-2.623-.33-5.201-.422-7.731-.092-2.53-.136-5.2-.136-8.012 0-24.36 3.207-42.309 9.62-53.834 6.413-11.526 15.567-17.29 27.466-17.29 15.427 0 25.929 8.06 31.507 24.177l-68.035 62.69zM244.009.314c-11.1 0-21.163 2.109-30.194 6.326-9.031 4.216-16.793 10.541-23.285 18.975-6.491 8.434-11.52 19.072-15.096 31.907-3.576 12.84-5.36 27.787-5.36 44.839 0 33.361 6.3 58.802 18.906 76.324 12.607 17.526 30.853 26.285 54.748 26.285 11.095 0 21.207-2.109 30.335-6.326 9.123-4.216 16.929-10.585 23.42-19.116 6.492-8.526 11.522-19.208 15.097-32.047 3.576-12.835 5.364-27.875 5.364-45.12 0-34.859-6.4-60.581-19.192-77.167C285.962 8.607 267.712.314 244.01.314zm.022 177.504c13.295 0 23.686-6.41 30.884-19.054 3.45-6.062 6.06-13.938 7.754-23.408 1.66-9.267 2.5-20.368 2.5-32.995 0-2.987-.048-5.915-.143-8.702a227.886 227.886 0 0 0-.423-8.148l-.549-7.804-5.763 5.29-68.317 62.689-1.81 1.66.787 2.326c3.1 9.173 7.606 16.207 13.394 20.907 5.916 4.803 13.213 7.239 21.686 7.239zM203.98 126.18l5.755-5.303 68.035-62.69 1.816-1.673-.808-2.334c-3.022-8.73-7.506-15.422-13.328-19.89-5.901-4.527-13.217-6.823-21.743-6.823-13.313 0-23.663 6.468-30.762 19.226-3.394 6.1-5.962 13.931-7.63 23.274-1.636 9.15-2.465 20.048-2.465 32.394 0 2.883.047 5.624.138 8.15.094 2.565.238 5.21.43 7.863l.562 7.806zm40.03-122.094c11.254 0 21.315 1.979 29.903 5.881 8.516 3.87 15.87 9.768 21.854 17.53 6.046 7.84 10.662 18.047 13.719 30.338 3.11 12.505 4.687 27.486 4.687 44.526 0 16.822-1.757 31.662-5.225 44.108-3.43 12.322-8.298 22.677-14.465 30.775-6.082 7.992-13.484 14.04-22.001 17.977-8.585 3.966-18.26 5.977-28.753 5.977-11.323 0-21.408-2.085-29.975-6.198-8.506-4.084-15.81-10.314-21.712-18.518-5.99-8.327-10.56-18.732-13.58-30.926-3.062-12.364-4.615-26.896-4.615-43.195 0-16.643 1.757-31.388 5.22-43.827 3.431-12.315 8.294-22.617 14.453-30.618 6.09-7.911 13.455-13.92 21.892-17.86 8.485-3.962 18.107-5.97 28.598-5.97z" fill="#0D47A1"/>
        <path d="M369.73 118.865h54.673V49.108l-54.674 69.757zm54.673 80.284v-54.82h-85.179v-22.503L427.394 4.73h27.254v114.135h33.734v25.465h-33.734v54.819h-30.245z" fill="#FFF"/>
        <path d="M373.603 116.98l48.914-62.41v62.41h-48.914zm82.93-114.136h-30.08L337.34 121.196v25.02h85.178v54.818h34.016v-54.819h33.735V116.98h-33.735V2.844zM365.855 120.75h60.434V43.646l-6.74 8.598-48.914 62.409-4.78 6.097zM452.762 6.616V120.75h33.735v21.694h-33.734v54.819h-26.474V142.445H341.11v-19.988L428.334 6.616h24.428z" fill="#0D47A1"/>
    </g>
</svg>
